local/share/icons/dracula-icons-main/scalable/apps/distributor-logo-blackarch.svg

<?xml version="1.0" encoding="UTF-8"?>
<svg xmlns="http://www.w3.org/2000/svg" xmlns:xlink="http://www.w3.org/1999/xlink" width="64" height="64" viewBox="0 0 64 64">
<path fill-rule="nonzero" fill="rgb(30.196078%, 30.196078%, 30.196078%)" fill-opacity="1" d="M 15.609375 8.464844 C 15.609375 12.410156 12.410156 15.609375 8.464844 15.609375 C 4.519531 15.609375 1.324219 12.410156 1.324219 8.464844 C 1.324219 4.519531 4.519531 1.324219 8.464844 1.324219 C 12.410156 1.324219 15.609375 4.519531 15.609375 8.464844 Z M 15.609375 8.464844 "/>
<path fill-rule="evenodd" fill="rgb(100%, 100%, 100%)" fill-opacity="1" d="M 8.464844 3.769531 C 8.089844 4.695312 7.863281 5.300781 7.441406 6.195312 C 7.699219 6.46875 8.015625 6.785156 8.527344 7.144531 C 7.976562 6.917969 7.601562 6.691406 7.320312 6.453125 C 6.78125 7.574219 5.941406 9.171875 4.234375 12.238281 C 5.574219 11.464844 6.617188 10.984375 7.585938 10.804688 C 7.542969 10.613281 7.519531 10.421875 7.523438 10.230469 L 7.523438 10.1875 C 7.542969 9.324219 7.992188 8.664062 8.523438 8.710938 C 9.050781 8.753906 9.464844 9.488281 9.441406 10.347656 C 9.4375 10.503906 9.421875 10.65625 9.386719 10.808594 C 10.347656 10.996094 11.375 11.472656 12.699219 12.238281 C 12.4375 11.757812 12.207031 11.324219 11.984375 10.910156 C 11.632812 10.640625 11.265625 10.285156 10.523438 9.902344 C 11.035156 10.035156 11.402344 10.191406 11.6875 10.363281 C 9.425781 6.152344 9.242188 5.589844 8.464844 3.769531 Z M 8.464844 3.769531 "/>
</svg>

<svg width="64" height="64" version="1.1" viewBox="0 0 16.933 16.933" xmlns="http://www.w3.org/2000/svg">
 <circle cx="8.4665" cy="8.4665" r="7.1436" fill="#4d4d4d" style="paint-order:stroke markers fill"/>
 <path d="m8.466 3.77c-0.377 0.924-0.604 1.529-1.024 2.425 0.257 0.273 0.573 0.59 1.086 0.95-0.552-0.228-0.928-0.455-1.209-0.692-0.537 1.12-1.378 2.717-3.086 5.785 1.342-0.775 2.383-1.252 3.352-1.435a2.457 2.457 0 0 1-0.063-0.574l1e-3 -0.043c0.021-0.86 0.469-1.521 0.999-1.476s0.941 0.778 0.92 1.638a2.427 2.427 0 0 1-0.054 0.462c0.959 0.188 1.988 0.664 3.312 1.428-0.261-0.48-0.494-0.913-0.717-1.326-0.35-0.272-0.716-0.625-1.461-1.008 0.512 0.133 0.88 0.287 1.165 0.459-2.262-4.212-2.445-4.772-3.221-6.593z" fill="#fff" fill-rule="evenodd"/>
</svg>
